src/assets/mask-logo.svg

<svg fill="none" viewBox="0 0 36 36" xmlns="http://www.w3.org/2000/svg"><rect fill="#1c68f3" height="36" rx="18" width="36"/><path clip-rule="evenodd" d="m28.4313 13.9167v5.8333h-17.3866l-.748.0001c.7917 3.5394 3.9338 6.1832 7.6895 6.1832 3.1049 0 5.7904-1.807 7.0753-4.4332h3.3698v4.8999c0 1.1598-.9341 2.1-2.0864 2.1h-16.69113c-1.15228 0-2.08639-.9402-2.08639-2.1v-12.4833zm-5.3709 7.5834c-1.1065 1.6282-2.9664 2.6967-5.0742 2.6967-2.1079 0-3.9678-1.0685-5.0743-2.6967zm-9.5236-6.1834c-1.6351 0-2.9877 1.2169-3.2127 2.8h1.7785c.1956-.6093.7637-1.05 1.4342-1.05.6704 0 1.2386.4407 1.4342 1.05h1.7784c-.225-1.5831-1.5776-2.8-3.2126-2.8zm8.9251 0c-1.635 0-2.9877 1.2169-3.2126 2.8h1.7784c.1956-.6093.7637-1.05 1.4342-1.05.6704 0 1.2386.4407 1.4342 1.05h1.7784c-.2249-1.5831-1.5776-2.8-3.2126-2.8zm3.883-7.8167c1.1523 0 2.0864.9402 2.0864 2.1v2.5667h-20.86392v-2.5667c0-1.1598.93411-2.1 2.08639-2.1z" fill="#fcfcfd" fill-rule="evenodd"/></svg>

<svg xmlns="http://www.w3.org/2000/svg" fill="none" viewBox="0 0 36 36">
    <g id="wallet/mask">
        <rect id="Rectangle 2" width="36" height="36" fill="#1C68F3" rx="18"/>
        <path id="Vector" fill="#FCFCFD" fill-rule="evenodd" d="M28.4313 13.9167V19.75H11.0447L10.2967 19.7501C11.0884 23.2895 14.2305 25.9333 17.9862 25.9333C21.0911 25.9333 23.7766 24.1263 25.0615 21.5001L28.4313 21.5001V26.4C28.4313 27.5598 27.4972 28.5 26.3449 28.5H9.65377C8.50149 28.5 7.56738 27.5598 7.56738 26.4V13.9167H28.4313ZM23.0604 21.5001C21.9539 23.1283 20.094 24.1968 17.9862 24.1968C15.8783 24.1968 14.0184 23.1283 12.9119 21.5001H23.0604ZM13.5368 15.3167C11.9017 15.3167 10.5491 16.5336 10.3241 18.1167L12.1026 18.1167C12.2982 17.5074 12.8663 17.0667 13.5368 17.0667C14.2072 17.0667 14.7754 17.5074 14.971 18.1167L16.7494 18.1167C16.5244 16.5336 15.1718 15.3167 13.5368 15.3167ZM22.4619 15.3167C20.8269 15.3167 19.4742 16.5336 19.2493 18.1167L21.0277 18.1167C21.2233 17.5074 21.7914 17.0667 22.4619 17.0667C23.1323 17.0667 23.7005 17.5074 23.8961 18.1167L25.6745 18.1167C25.4496 16.5336 24.0969 15.3167 22.4619 15.3167ZM26.3449 7.5C27.4972 7.5 28.4313 8.4402 28.4313 9.6V12.1667H7.56738V9.6C7.56738 8.4402 8.50149 7.5 9.65377 7.5H26.3449Z" clip-rule="evenodd"/>
    </g>
</svg>
